X: 12709
T: Father Frank From Gorey
R: reel
M: 4/4
K: Dmajor
|:Ad d/c/d cdeg|fddA FGAB|AddA cde^g|1 afdf ed B/c/d:|2 afdf edcd||
|:BG ~G2 AF ~F2|BEEF ~G3 B|BcdB AGFE|Ddce d/c/d cd|
BGGB AFFd|BEEF GEBE|BG d/c/B A/G/F G/F/E|1 Dd c/d/e d2 dc:|2 Ddce d2 d2||

